X:13
T: SIND WIR VEREINT ZUR GUTEN STUNDE
N: B0012
O: Europa, Mitteleuropa, Deutschland
R: politisch, national, Vaterlands - Lied, Studenten - Lied
M: 4/4
L: 1/8
K: Bb
FBc | d3dcfec | BFF2z
BBA | G3Gc2c2 | F4z
FBc | d3dcfec | BFF2z
BBA | G3Gc2c2 | F4z
FAB | c3ABdfd | cAF2z
FDF | B3BBdfd | c4z
dde | f3edcBA | AGG2z
ecd | e2f2d2c2 | B4z
dde | f3edcBA | AGG2z
ecd | e2f2d2c2 | B4z

